X:20
T:Trip o'er the Mountain, The
T:Trip over the Mountain, The
T:Trip We Took over the Mountains, The
R:air
H:Also played with doubled parts
Z:id:hn-air-20
M:3/4
L:1/8
Q:1/4=160
K:G
D2 | D2 G2 GA | B2 G2 G2 | A2 G2 A2 | f3 gaf |
g2 d2 d2 | d2 c2 A2 | G3 BAG | F3 AGF |
D2 G2 GA | B2 G2 G2 | A2 G2 A2 | f3 gaf |
g2 d2 d2 | d2 c2 A2 | G3 BAF | G4 ||
g2 | g2 d2 g2 | g3 gag | f2 d2 e2 | f3 gaf |
g2 d2 d2 | d2 c2 A2 | G3 BAG | F4 g2 |
g2 d2 g2 | g3 gag | f2 d2 e2 | f3 gaf |
g2 d2 d2 | d2 c2 A2 | G3 BAF | G3 AGF ||
P:variations
D2 G2 GA | B2 G2 GB | A2 G2 A2 | f3 gaf |
g2 d2 de | d2 c2 A2 | G3 BAG | F3 AGF |
D2 G3 A | B2 G2 GB | A2 G2 A2 | f3 gaf |
g2 d2 de | d3 cAF | G3 BAF | G4 ||
g2 | g2 d2 g2 | g3 bag | f2 d3 e | =f3 ga^f |
g2 d2 d2 | d2 c2 AF | G3 BAG | F4 g2 |
g2 d2 g2 | g3 bag | f2 d2 e2 | f3 gaf |
g2 d2 d2 | d3 cAF | G3 BAF | G3 AGF ||

